X:1
T:Title
%%score { ( 1 3 ) | ( 2 4 ) }
L:1/8
M:3/4
K:Ab
V:1 treble nm="Grand Piano"
V:3 treble 
V:2 bass 
V:4 bass 
V:1
 z2 z2[Q:1/4=106] E2 | [Ec]4 [Ec]2 | c2 z2 z2 | [B,DG]2 [EB]2 [Gd]2 | [Fd]2 c2 E2 | c4 z2 | %6
 e2 z2 z2 | [CEA]2 G2 c2 | B4 z2 | c4 z2 | c2 z2 z2 | G2 B2 [Bd]2 | [df]2 [ce]2 [E=Ac]2 | %13
 [Ae]2 [Bd]2 [DFB]2 | [DF]4 [DEG]2 | [CEA]6- |[M:2/4] [CEA]2 z2 |[M:1/4] E2 |[M:3/4] E4 E2 | %19
 E4 z2 | [CE]4 [CF]2 | [CE]4 E2 | E2 G2 B2 | c4 G2 | B2 A2 .[_CG]2 | [E,CE]4 E2 | E4 E2 | E4 z2 | %28
 C4[K:treble] z2 | [CE]4 [Ac]2 | e2 z2 [B,GB]2 | [DF]4 [DEG]2 | [CEA]6- |[M:2/4] [CEA]2 z2 |] %34
V:2
 z2 z2 E,2 | [A,,A,]4 [=A,,_G,]2 | z2[K:treble] B2[K:bass] B,,2 | z2 A,2 [E,G,]2 | z2 E2 E,2 | %5
 [A,,A,]4 [C,A,]2 | =A,2 B,2 D,2 | z2 [B,D]2 [E,A,C]2 | [E,G,E]2 [F,A,]2 [G,B,D]2 | A,4 z2 | %10
 [D,A,]4 [D,B,]2 | [DE]2 [B,G]2 E,2 | z2 C2 _G,2 | C2 D2 D,2 | B,,4 E,2 | A,,6- |[M:2/4] A,,2 z2 | %17
[M:1/4] E,2 |[M:3/4] [E,G,B,]4 [E,A,C]2 | [B,D]2 A,2 [E,G,B,]2 | [A,,A,]4 [A,,E,]2 | %21
 [A,,A,]4 [C,A,C]2 | [E,G,D]4 [E,G,D]2 | [E,G,D]4 [E,D]2 | [A,,E,]4 z F | A,,4 E,2 | %26
 [E,G,B,]4 [E,A,C]2 | [B,D]2 A,2 [E,G,B,]2 | A,2 z2 z2 | [A,,E,]4 [A,,A,]2 | %30
 z2[K:treble] d2[K:bass] E,2 | E,4 E,2 | A,,6- |[M:2/4] A,,2 z2 |] %34
V:3
 x6 | x6 | D4 [B,DF]2 | x6 | x6 | A2 G2 [_Ge]2 | F2- [Fd]2 [DFB]2 | x6 | z2 =D2 E2 | z2 E2 [=Ec]2 | %10
 F2- [FB]2 F2 | x6 | x6 | x6 | x6 | x6 |[M:2/4] x4 |[M:1/4] x2 |[M:3/4] x6 | z2 C2 E2 | x6 | x6 | %22
 x6 | x6 | C4 z2 | x6 | x6 | z2 C2 E2 | z2 E,2[K:treble] [_CF]2 | x6 | G4 z2 | x6 | x6 | %33
[M:2/4] x4 |] %34
V:4
 x6 | x6 | [B,,F,]4[K:treble][K:bass] z2 | E,4 z2 | [A,,A,]4 z2 | x6 | D,4 z2 | E,4 z2 | x6 | %9
 C2 z2 [C,A,]2 | x6 | E,4 z2 | A,4 z2 | F,4 z2 | x6 | x6 |[M:2/4] x4 |[M:1/4] x2 |[M:3/4] x6 | %19
 E,4 z2 | x6 | x6 | x6 | x6 | z2 z2 [A,,=D,]2 | x6 | x6 | E,4 z2 | A,,4 [A,,=D,]2 | x6 | %30
 [E,B,]4[K:treble][K:bass] z2 | x6 | x6 |[M:2/4] x4 |] %34

